archdroid-icon-theme/Archdroid-Amber/mimetypes/scalable/libreoffice-oasis-drawing-template.svg

<?xml version="1.0" encoding="UTF-8" standalone="no"?>
<svg
   xmlns:dc="http://purl.org/dc/elements/1.1/"
   xmlns:cc="http://creativecommons.org/ns#"
   xmlns:rdf="http://www.w3.org/1999/02/22-rdf-syntax-ns#"
   xmlns:svg="http://www.w3.org/2000/svg"
   xmlns="http://www.w3.org/2000/svg"
   xmlns:sodipodi="http://sodipodi.sourceforge.net/DTD/sodipodi-0.dtd"
   xmlns:inkscape="http://www.inkscape.org/namespaces/inkscape"
   fill="#FFC107"
   width="48"
   height="48"
   viewBox="0 0 48 48"
   id="svg2"
   version="1.1"
   inkscape:version="0.91 r13725"
   sodipodi:docname="libreoffice-oasis-drawing-template.svg">
  <metadata
     id="metadata10">
    <rdf:RDF>
      <cc:Work
         rdf:about="">
        <dc:format>image/svg+xml</dc:format>
        <dc:type
           rdf:resource="http://purl.org/dc/dcmitype/StillImage" />
        <dc:title />
      </cc:Work>
    </rdf:RDF>
  </metadata>
  <defs
     id="defs8" />
  <sodipodi:namedview
     pagecolor="#ffffff"
     bordercolor="#666666"
     borderopacity="1"
     objecttolerance="10"
     gridtolerance="10"
     guidetolerance="10"
     inkscape:pageopacity="0"
     inkscape:pageshadow="2"
     inkscape:window-width="1366"
     inkscape:window-height="713"
     id="namedview6"
     showgrid="false"
     inkscape:zoom="5.49191106506773"
     inkscape:cx="31.61071005722369"
     inkscape:cy="14.83782394922417"
     inkscape:window-x="0"
     inkscape:window-y="30"
     inkscape:window-maximized="1"
     inkscape:current-layer="svg2"
     inkscape:snap-bbox="true"
     inkscape:bbox-paths="true"
     inkscape:bbox-nodes="true"
     inkscape:snap-bbox-edge-midpoints="false"
     inkscape:snap-bbox-midpoints="true"
     inkscape:snap-object-midpoints="true"
     inkscape:snap-page="true" />
  <g
     style="fill:#4caf50"
     id="g4138"
     transform="translate(-8,0)" />
  <path
     id="path4143"
     style="fill:#c99c00;fill-opacity:1"
     d="m 28,2 c -2.21,0 -4,1.789999999999999 -4,4 l 0,36 c 0,2.21 1.79,4 4,4 l 16,0 c 2.21,0 4,-1.79 4,-4 L 48,6 C 48,3.789999999999999 46.21,2 44,2 L 28,2 Z m 0,4 16,0 0,36 -16,0 0,-4 8,0 0,-4 -8,0 0,-4 8,0 0,-4 -8,0 0,-4 8,0 0,-4 -8,0 0,-4 8,0 0,-4 -8,0 0,-4 z M 4,4 C 1.789999999999999,4 0.0195313499999994,5.79 0.01953125,8 L 0,40 c 0,2.21 1.77046795,4 3.98046875,4 L 22.5546875,44 C 22.2111919296278,43.40960921240377 22,42.73260284552845 22,42 L 22,27.75 15.75,34 13,31.25 21.955078125,22.294921875 C 21.96828290544034,22.28171709455966 21.9862565146828,22.27793960252101 22,22.265625 L 22,18 18,18 18,7 22,11 22,6 20,4 4,4 Z m 7,29 c 1.655,0 3,1.345 3,3 0,2.21 -1.79,4 -4,4 C 8.495,40 6.920000000000001,39.22 6,38 c 0.845000000000001,0 2,-0.69 2,-2 0,-1.655 1.344999999999999,-3 3,-3 z" />
</svg>

<svg xmlns="http://www.w3.org/2000/svg" fill="#FFC107" viewBox="0 0 48 48"><path d="m28 2c-2.21 0-4 1.79-4 4v36c0 2.21 1.79 4 4 4h16c2.21 0 4-1.79 4-4v-36c0-2.21-1.79-4-4-4h-16m0 4h16v36h-16v-4h8v-4h-8v-4h8v-4h-8v-4h8v-4h-8v-4h8v-4h-8v-4zm-24-2c-2.21 0-3.98 1.79-3.98 4l-.02 32c0 2.21 1.77 4 3.98 4h18.574c-.343-.59-.555-1.267-.555-2v-14.25l-6.25 6.25-2.75-2.75 8.955-8.955c.013-.013.031-.017.045-.029v-4.266h-4v-11l4 4v-5l-2-2h-16m7 29c1.655 0 3 1.345 3 3 0 2.21-1.79 4-4 4-1.505 0-3.08-.78-4-2 .845 0 2-.69 2-2 0-1.655 1.345-3 3-3z" fill="#c99c00"/></svg>
